X: 40845
T: Tramps And Hawkers
R: waltz
M: 3/4
K: Dmajor
DE|F2A FED|E2F D2B,|A,2B, D2E|D4 FG|
A2A FGA|BdB AFE|D2E FED|B,4 FG|
A2A AFA|BdB AFE|D2E FED|B,3 D2E|
F2A FED|E2F D2B,|A,2B, D2E|D6||

